%
(Header)
(Generated by gcodetools from Inkscape.)
(Using default header. To add your own header create file "header" in the output dir.)
M3
(Header end.)
G21 (All units in mm)

(Start cutting path id: path3091-2-4)
(Change tool to Cylindrical cutter)

G00 Z0.100000
G00 X52.337890 Y178.735500

G01 Z-0.100000 F100.0(Penetrate)
G01 X52.333690 Y179.528730 Z-0.100000 F400.000000
G01 X52.356896 Y180.229965 Z-0.100000
G01 X52.098867 Y180.892110 Z-0.100000
G01 X51.672305 Y181.072021 Z-0.100000
G01 X51.182860 Y181.027420 Z-0.100000
G01 X50.047935 Y181.099522 Z-0.100000
G01 X48.899214 Y181.646746 Z-0.100000
G01 X47.740432 Y182.547690 Z-0.100000
G01 X46.575326 Y183.680949 Z-0.100000
G01 X44.241088 Y186.158797 Z-0.100000
G01 X43.079429 Y187.260578 Z-0.100000
G01 X41.926392 Y188.109060 Z-0.100000
G01 X40.262165 Y188.876158 Z-0.100000
G01 X38.518958 Y189.356583 Z-0.100000
G01 X36.715955 Y189.615267 Z-0.100000
G01 X34.872341 Y189.717139 Z-0.100000
G01 X31.140020 Y189.710170 Z-0.100000
G01 X27.475472 Y189.855120 Z-0.100000
G01 X25.810820 Y190.053255 Z-0.100000
G01 X23.968444 Y190.059618 Z-0.100000
G01 X20.125537 Y189.977559 Z-0.100000
G01 X18.312512 Y190.129402 Z-0.100000
G01 X16.696778 Y190.570003 Z-0.100000
G01 X15.992193 Y190.936129 Z-0.100000
G01 X15.372088 Y191.419495 Z-0.100000
G01 X14.848183 Y192.035116 Z-0.100000
G01 X14.432196 Y192.798010 Z-0.100000
G01 X14.555352 Y196.325882 Z-0.100000
G01 X14.803057 Y199.898151 Z-0.100000
G01 X15.152951 Y201.607997 Z-0.100000
G01 X15.749186 Y203.217417 Z-0.100000
G01 X16.663494 Y204.689236 Z-0.100000
G01 X17.967612 Y205.986280 Z-0.100000
G01 X19.184676 Y206.888753 Z-0.100000
G01 X20.026350 Y207.952724 Z-0.100000
G01 X20.592561 Y209.134159 Z-0.100000
G01 X20.983239 Y210.389026 Z-0.100000
G01 X21.637709 Y212.942919 Z-0.100000
G01 X22.101359 Y214.153880 Z-0.100000
G01 X22.789191 Y215.262139 Z-0.100000
G01 X22.782715 Y215.868255 Z-0.100000
G01 X22.604525 Y216.410169 Z-0.100000
G01 X21.860669 Y217.342016 Z-0.100000
G01 X19.716706 Y218.882210 Z-0.100000
G01 X18.827259 Y219.653080 Z-0.100000
G01 X18.539876 Y220.074261 Z-0.100000
G01 X18.399941 Y220.532815 Z-0.100000
G01 X18.439371 Y221.038900 Z-0.100000
G01 X18.690083 Y221.602675 Z-0.100000
G01 X19.183992 Y222.234296 Z-0.100000
G01 X19.953014 Y222.943922 Z-0.100000
G01 X21.116016 Y223.600307 Z-0.100000
G01 X21.385396 Y223.922915 Z-0.100000
G01 X21.482905 Y224.245407 Z-0.100000
G01 X21.270940 Y224.900851 Z-0.100000
G01 X20.697380 Y225.588270 Z-0.100000
G01 X19.979486 Y226.329294 Z-0.100000
G01 X19.334516 Y227.145552 Z-0.100000
G01 X18.979731 Y228.058674 Z-0.100000
G01 X18.979051 Y228.558319 Z-0.100000
G01 X19.132389 Y229.090291 Z-0.100000
G01 X28.467911 Y240.908019 Z-0.100000
G01 X27.647943 Y242.364005 Z-0.100000
G01 X27.041254 Y243.971164 Z-0.100000
G01 X26.912232 Y244.829369 Z-0.100000
G01 X26.949739 Y245.722891 Z-0.100000
G01 X27.191514 Y246.650903 Z-0.100000
G01 X27.675292 Y247.612582 Z-0.100000
G01 X30.407798 Y254.149789 Z-0.100000
G01 X31.623610 Y257.473688 Z-0.100000
G01 X32.575928 Y260.923014 Z-0.100000
G01 X33.125361 Y263.179327 Z-0.100000
G01 X33.936976 Y265.324651 Z-0.100000
G01 X34.984249 Y267.355021 Z-0.100000
G01 X36.240659 Y269.266473 Z-0.100000
G01 X37.679683 Y271.055042 Z-0.100000
G01 X39.274800 Y272.716765 Z-0.100000
G01 X40.999486 Y274.247676 Z-0.100000
G01 X42.827220 Y275.643811 Z-0.100000
G01 X48.812972 Y278.397441 Z-0.100000
G01 X51.882749 Y279.631160 Z-0.100000
G01 X55.001189 Y280.729327 Z-0.100000
G01 X58.166337 Y281.661825 Z-0.100000
G01 X61.376240 Y282.398537 Z-0.100000
G01 X64.628943 Y282.909348 Z-0.100000
G01 X67.922494 Y283.164141 Z-0.100000
G01 X70.040963 Y283.164733 Z-0.100000
G01 X72.124922 Y282.960778 Z-0.100000
G01 X76.218199 Y282.111537 Z-0.100000
G01 X80.260108 Y280.961024 Z-0.100000
G01 X84.308430 Y279.853849 Z-0.100000
G01 X86.657296 Y278.345401 Z-0.100000
G01 X88.871997 Y276.663796 Z-0.100000
G01 X90.959302 Y274.828787 Z-0.100000
G01 X92.925980 Y272.860131 Z-0.100000
G01 X96.524536 Y268.600885 Z-0.100000
G01 X99.721820 Y264.044092 Z-0.100000
G01 X102.073786 Y260.065193 Z-0.100000
G01 X104.320320 Y255.990711 Z-0.100000
G01 X105.309205 Y253.895938 Z-0.100000
G01 X106.157917 Y251.751245 Z-0.100000
G01 X106.828518 Y249.547956 Z-0.100000
G01 X107.283070 Y247.277397 Z-0.100000
G01 X107.459253 Y243.843519 Z-0.100000
G01 X107.755888 Y240.413318 Z-0.100000
G01 X107.985978 Y236.983890 Z-0.100000
G01 X107.962530 Y233.552331 Z-0.100000
G01 X107.623103 Y229.960011 Z-0.100000
G01 X106.830210 Y226.484678 Z-0.100000
G01 X105.588907 Y223.142791 Z-0.100000
G01 X103.904250 Y219.950809 Z-0.100000
G01 X101.927869 Y216.915495 Z-0.100000
G01 X99.969281 Y213.886312 Z-0.100000
G01 X99.127599 Y212.314753 Z-0.100000
G01 X98.447493 Y210.673604 Z-0.100000
G01 X97.981340 Y208.939160 Z-0.100000
G01 X97.781515 Y207.087712 Z-0.100000
G01 X96.935613 Y205.449847 Z-0.100000
G01 X95.708120 Y204.156671 Z-0.100000
G01 X94.192038 Y203.124457 Z-0.100000
G01 X92.480367 Y202.269477 Z-0.100000
G01 X88.842266 Y200.756314 Z-0.100000
G01 X87.101838 Y199.930677 Z-0.100000
G01 X85.537825 Y198.947365 Z-0.100000
G01 X83.345920 Y198.166022 Z-0.100000
G01 X81.246872 Y197.204498 Z-0.100000
G01 X77.216824 Y194.954993 Z-0.100000
G01 X73.226634 Y192.627025 Z-0.100000
G01 X71.177409 Y191.567422 Z-0.100000
G01 X69.055256 Y190.648770 Z-0.100000
G01 X65.413005 Y189.041670 Z-0.100000
G01 X61.691550 Y187.037811 Z-0.100000
G01 X54.229017 Y182.649590 Z-0.100000
G01 X53.237114 Y182.116950 Z-0.100000
G01 X51.676623 Y181.862470 Z-0.100000
G01 X50.686566 Y181.919170 Z-0.100000
G01 X50.192530 Y182.012219 Z-0.100000
G01 X49.730969 Y182.263660 Z-0.100000
G01 X48.707432 Y182.916161 Z-0.100000
G01 X47.782717 Y183.716256 Z-0.100000
G01 X46.092239 Y185.551090 Z-0.100000
G01 X44.384498 Y187.351889 Z-0.100000
G01 X43.438206 Y188.109440 Z-0.100000
G01 X42.384460 Y188.702380 Z-0.100000
G01 X40.750575 Y189.455497 Z-0.100000
G01 X39.039149 Y189.927168 Z-0.100000
G01 X37.269019 Y190.181137 Z-0.100000
G01 X35.459018 Y190.281153 Z-0.100000
G01 X31.794745 Y190.274309 Z-0.100000
G01 X28.197007 Y190.416610 Z-0.100000
G01 X26.556962 Y190.606826 Z-0.100000
G01 X24.733038 Y190.601719 Z-0.100000
G01 X20.914257 Y190.486703 Z-0.100000
G01 X19.109752 Y190.617377 Z-0.100000
G01 X17.502074 Y191.033895 Z-0.100000
G01 X16.801787 Y191.386936 Z-0.100000
G01 X16.186398 Y191.856549 Z-0.100000
G01 X15.667803 Y192.457768 Z-0.100000
G01 X15.257900 Y193.205630 Z-0.100000
G01 X15.389250 Y196.627430 Z-0.100000
G01 X15.655408 Y200.042700 Z-0.100000
G01 X16.011190 Y201.672304 Z-0.100000
G01 X16.607255 Y203.209577 Z-0.100000
G01 X17.512464 Y204.624286 Z-0.100000
G01 X18.795676 Y205.886197 Z-0.100000
G01 X19.993422 Y206.788008 Z-0.100000
G01 X20.827320 Y207.874212 Z-0.100000
G01 X21.393911 Y209.092964 Z-0.100000
G01 X21.789734 Y210.392423 Z-0.100000
G01 X22.455242 Y213.026082 Z-0.100000
G01 X22.918008 Y214.256595 Z-0.100000
G01 X23.596170 Y215.360441 Z-0.100000
G01 X23.589811 Y215.955507 Z-0.100000
G01 X23.414869 Y216.487540 Z-0.100000
G01 X22.684574 Y217.402398 Z-0.100000
G01 X20.579696 Y218.914512 Z-0.100000
G01 X19.706464 Y219.671328 Z-0.100000
G01 X19.424319 Y220.084829 Z-0.100000
G01 X19.286935 Y220.535023 Z-0.100000
G01 X19.325646 Y221.031882 Z-0.100000
G01 X19.571786 Y221.585378 Z-0.100000
G01 X20.811690 Y222.902172 Z-0.100000
G01 X21.953493 Y223.546590 Z-0.100000
G01 X22.217963 Y223.863317 Z-0.100000
G01 X22.313696 Y224.179928 Z-0.100000
G01 X22.105596 Y224.823422 Z-0.100000
G01 X21.542494 Y225.498308 Z-0.100000
G01 X20.837687 Y226.225822 Z-0.100000
G01 X20.204476 Y227.027198 Z-0.100000
G01 X19.856158 Y227.923672 Z-0.100000
G01 X19.855490 Y228.414208 Z-0.100000
G01 X20.006033 Y228.936481 Z-0.100000
G01 X29.588821 Y240.770678 Z-0.100000
G01 X28.718573 Y242.163883 Z-0.100000
G01 X27.979439 Y243.662016 Z-0.100000
G01 X27.776123 Y244.461994 Z-0.100000
G01 X27.746086 Y245.302081 Z-0.100000
G01 X27.936162 Y246.186902 Z-0.100000
G01 X28.393182 Y247.121082 Z-0.100000
G01 X31.075871 Y253.539104 Z-0.100000
G01 X32.269516 Y256.802403 Z-0.100000
G01 X33.204474 Y260.188841 Z-0.100000
G01 X33.743888 Y262.404018 Z-0.100000
G01 X34.540705 Y264.510230 Z-0.100000
G01 X35.568884 Y266.503583 Z-0.100000
G01 X36.802388 Y268.380186 Z-0.100000
G01 X38.215178 Y270.136147 Z-0.100000
G01 X39.781213 Y271.767573 Z-0.100000
G01 X41.474456 Y273.270573 Z-0.100000
G01 X43.268868 Y274.641255 Z-0.100000
G01 X49.145491 Y277.344682 Z-0.100000
G01 X52.159301 Y278.555908 Z-0.100000
G01 X55.220884 Y279.634054 Z-0.100000
G01 X58.328325 Y280.549551 Z-0.100000
G01 X61.479704 Y281.272832 Z-0.100000
G01 X64.673105 Y281.774330 Z-0.100000
G01 X67.906608 Y282.024478 Z-0.100000
G01 X69.986455 Y282.025058 Z-0.100000
G01 X72.032420 Y281.824822 Z-0.100000
G01 X76.051071 Y280.991063 Z-0.100000
G01 X80.019289 Y279.861527 Z-0.100000
G01 X83.993804 Y278.774537 Z-0.100000
G01 X86.299849 Y277.293590 Z-0.100000
G01 X88.474174 Y275.642643 Z-0.100000
G01 X90.523425 Y273.841090 Z-0.100000
G01 X92.454248 Y271.908325 Z-0.100000
G01 X95.987195 Y267.726733 Z-0.100000
G01 X99.126185 Y263.253017 Z-0.100000
G01 X101.435276 Y259.346660 Z-0.100000
G01 X103.640854 Y255.346462 Z-0.100000
G01 X104.611710 Y253.289881 Z-0.100000
G01 X105.444949 Y251.184290 Z-0.100000
G01 X106.103325 Y249.021171 Z-0.100000
G01 X106.549590 Y246.792008 Z-0.100000
G01 X106.722563 Y243.420734 Z-0.100000
G01 X107.013791 Y240.053071 Z-0.100000
G01 X107.239689 Y236.686166 Z-0.100000
G01 X107.216670 Y233.317170 Z-0.100000
G01 X106.883432 Y229.790344 Z-0.100000
G01 X106.104994 Y226.378372 Z-0.100000
G01 X104.886318 Y223.097413 Z-0.100000
G01 X103.232370 Y219.963626 Z-0.100000
G01 X101.292023 Y216.983652 Z-0.100000
G01 X99.369140 Y214.009696 Z-0.100000
G01 X98.542801 Y212.466788 Z-0.100000
G01 X97.875093 Y210.855560 Z-0.100000
G01 X97.417438 Y209.152737 Z-0.100000
G01 X97.221256 Y207.335044 Z-0.100000
G01 X96.390777 Y205.727040 Z-0.100000
G01 X95.185665 Y204.457440 Z-0.100000
G01 X93.697224 Y203.444045 Z-0.100000
G01 X92.016760 Y202.604654 Z-0.100000
G01 X88.444989 Y201.119079 Z-0.100000
G01 X86.736292 Y200.308495 Z-0.100000
G01 X85.200796 Y199.343111 Z-0.100000
G01 X83.048853 Y198.576014 Z-0.100000
G01 X80.988074 Y197.632020 Z-0.100000
G01 X77.031499 Y195.423524 Z-0.100000
G01 X73.114057 Y193.137994 Z-0.100000
G01 X71.102193 Y192.097707 Z-0.100000
G01 X69.018733 Y191.195800 Z-0.100000
G01 X64.928492 Y189.507943 Z-0.100000
G01 X61.113732 Y187.560069 Z-0.100000
G01 X53.482511 Y183.047820 Z-0.100000
G01 X52.804194 Y182.742470 Z-0.100000
G01 X52.129929 Y182.628736 Z-0.100000
G01 X51.459483 Y182.686027 Z-0.100000
G01 X50.792626 Y182.893750 Z-0.100000
G01 X49.468748 Y183.678126 Z-0.100000
G01 X48.156436 Y184.817129 Z-0.100000
G01 X45.559091 Y187.500068 Z-0.100000
G01 X44.270344 Y188.714533 Z-0.100000
G01 X42.985740 Y189.624680 Z-0.100000
G01 X41.373049 Y190.335933 Z-0.100000
G01 X39.692105 Y190.785383 Z-0.100000
G01 X37.959579 Y191.032270 Z-0.100000
G01 X36.192143 Y191.135834 Z-0.100000
G01 X32.619222 Y191.149945 Z-0.100000
G01 X29.106714 Y191.301630 Z-0.100000
G01 X27.492149 Y191.470398 Z-0.100000
G01 X25.681055 Y191.419745 Z-0.100000
G01 X21.863902 Y191.168673 Z-0.100000
G01 X20.055158 Y191.222502 Z-0.100000
G01 X18.444509 Y191.565409 Z-0.100000
G01 X17.744302 Y191.884992 Z-0.100000
G01 X17.130614 Y192.324516 Z-0.100000
G01 X16.615779 Y192.899872 Z-0.100000
G01 X16.212128 Y193.626950 Z-0.100000
G01 X16.325190 Y196.936913 Z-0.100000
G01 X16.551608 Y200.195550 Z-0.100000
G01 X16.881521 Y201.745726 Z-0.100000
G01 X17.448809 Y203.211195 Z-0.100000
G01 X18.323150 Y204.567999 Z-0.100000
G01 X19.574222 Y205.792180 Z-0.100000
G01 X20.753170 Y206.689087 Z-0.100000
G01 X21.588027 Y207.790429 Z-0.100000
G01 X22.169286 Y209.037472 Z-0.100000
G01 X22.587439 Y210.371484 Z-0.100000
G01 X23.296400 Y213.065477 Z-0.100000
G01 X23.768194 Y214.307991 Z-0.100000
G01 X24.438853 Y215.402539 Z-0.100000
G01 X24.432257 Y215.983918 Z-0.100000
G01 X24.260058 Y216.502265 Z-0.100000
G01 X23.541854 Y217.389665 Z-0.100000
G01 X21.471250 Y218.845937 Z-0.100000
G01 X20.610868 Y219.574033 Z-0.100000
G01 X20.332035 Y219.972901 Z-0.100000
G01 X20.195109 Y220.408251 Z-0.100000
G01 X20.230841 Y220.890035 Z-0.100000
G01 X20.469983 Y221.428203 Z-0.100000
G01 X21.681497 Y222.713502 Z-0.100000
G01 X22.807091 Y223.359699 Z-0.100000
G01 X23.075698 Y223.687663 Z-0.100000
G01 X23.182171 Y224.020897 Z-0.100000
G01 X23.010698 Y224.709259 Z-0.100000
G01 X22.496639 Y225.436944 Z-0.100000
G01 X21.256614 Y227.058925 Z-0.100000
G01 X20.938576 Y227.977544 Z-0.100000
G01 X21.093806 Y228.984128 Z-0.100000
G01 X30.468271 Y240.561051 Z-0.100000
G01 X29.616941 Y241.923969 Z-0.100000
G01 X28.893875 Y243.389534 Z-0.100000
G01 X28.694980 Y244.172121 Z-0.100000
G01 X28.665596 Y244.993945 Z-0.100000
G01 X28.851539 Y245.859531 Z-0.100000
G01 X29.298624 Y246.773403 Z-0.100000
G01 X31.922994 Y253.051901 Z-0.100000
G01 X33.090690 Y256.244257 Z-0.100000
G01 X34.005322 Y259.557078 Z-0.100000
G01 X34.533010 Y261.724099 Z-0.100000
G01 X35.312504 Y263.784522 Z-0.100000
G01 X36.318332 Y265.734542 Z-0.100000
G01 X37.525020 Y267.570349 Z-0.100000
G01 X38.907096 Y269.288136 Z-0.100000
G01 X40.439088 Y270.884096 Z-0.100000
G01 X42.095521 Y272.354422 Z-0.100000
G01 X43.850923 Y273.695306 Z-0.100000
G01 X49.599793 Y276.339963 Z-0.100000
G01 X55.543111 Y278.579565 Z-0.100000
G01 X58.582998 Y279.475160 Z-0.100000
G01 X61.665869 Y280.182718 Z-0.100000
G01 X64.789847 Y280.673313 Z-0.100000
G01 X67.953057 Y280.918023 Z-0.100000
G01 X69.987689 Y280.918591 Z-0.100000
G01 X71.989176 Y280.722707 Z-0.100000
G01 X75.920465 Y279.907074 Z-0.100000
G01 X79.802417 Y278.802093 Z-0.100000
G01 X83.690530 Y277.738734 Z-0.100000
G01 X85.946444 Y276.289982 Z-0.100000
G01 X88.073501 Y274.674925 Z-0.100000
G01 X90.078201 Y272.912536 Z-0.100000
G01 X91.967048 Y271.021788 Z-0.100000
G01 X95.423190 Y266.931101 Z-0.100000
G01 X98.493942 Y262.554640 Z-0.100000
G01 X100.752831 Y258.733205 Z-0.100000
G01 X102.910459 Y254.819969 Z-0.100000
G01 X103.860208 Y252.808097 Z-0.100000
G01 X104.675333 Y250.748280 Z-0.100000
G01 X105.319395 Y248.632186 Z-0.100000
G01 X105.755960 Y246.451484 Z-0.100000
G01 X105.925184 Y243.153499 Z-0.100000
G01 X106.210080 Y239.859045 Z-0.100000
G01 X106.431061 Y236.565334 Z-0.100000
G01 X106.408540 Y233.269576 Z-0.100000
G01 X106.082548 Y229.819420 Z-0.100000
G01 X105.321033 Y226.481624 Z-0.100000
G01 X104.128848 Y223.271992 Z-0.100000
G01 X102.510850 Y220.206330 Z-0.100000
G01 X100.612690 Y217.291136 Z-0.100000
G01 X98.731612 Y214.381832 Z-0.100000
G01 X97.923238 Y212.872466 Z-0.100000
G01 X97.270045 Y211.296266 Z-0.100000
G01 X96.822338 Y209.630462 Z-0.100000
G01 X96.630421 Y207.852285 Z-0.100000
G01 X95.817997 Y206.279238 Z-0.100000
G01 X94.639083 Y205.037239 Z-0.100000
G01 X93.183000 Y204.045874 Z-0.100000
G01 X91.539069 Y203.224730 Z-0.100000
G01 X88.044946 Y201.771450 Z-0.100000
G01 X86.373395 Y200.978487 Z-0.100000
G01 X84.871278 Y200.034090 Z-0.100000
G01 X82.766118 Y199.283667 Z-0.100000
G01 X80.750139 Y198.360193 Z-0.100000
G01 X76.879578 Y196.199706 Z-0.100000
G01 X73.047298 Y193.963861 Z-0.100000
G01 X71.079171 Y192.946190 Z-0.100000
G01 X69.041003 Y192.063890 Z-0.100000
G01 X64.937649 Y190.355678 Z-0.100000
G01 X60.994083 Y188.332635 Z-0.100000
G01 X53.342344 Y183.823990 Z-0.100000
G01 X52.089891 Y183.247590 Z-0.100000
G01 X52.030831 Y186.826550 Z-0.100000
G00 Z0.100000

(End cutting path id: path3091-2-4)


(Footer)
M5
G00 X0.0000 Y0.0000
M2
(Using default footer. To add your own footer create file "footer" in the output dir.)
(end)
%